!!!OTL: Jungfer Doertchen.
!!!OTL-incipit:Es ritt ein Reuter frisch wohlgemut,
!!!ARE: Europa, Mitteleuropa, Deutschland (), Brandenburg
!!!YOR: 3, S. 99
!!    1839 gedruckt in Berlin
!!!SCT: Q0057H
!!!YEM: Copyright 1995, estate of Helmut Schaffrath.
**kern	**text
*ICvox	*
*M6/8	*
*k[f#]	*
*G:	*
!LO:TX:a:t=Mäßig gwschwind.	!
!LO:TX:a:t=Brandenburg	!
{8g	Es
=:	=:
(8.b	ritt
16cc)	.
8b	ein
=1	=1
8g	Reu-
8b	-ter
8dd	friſch
=:	=:
8ggL	wohl-
8eeJ	.
8dd	-ge-
=2	=2
4b}	-mut,
{8dd	ʒwei
=:	=:
[8a	Fe-
8a]	-dern
8b	trug
=3	=3
4cc	er
8dd	auf
=:	=:
4b	ſei-
8a	-nem
=4	=4
4g}	Hut.
{8dd	ʒwei
=:	=:
[8a	Fe-
8a]	-dern
8b	trug
=5	=5
4cc	er
8dd	auf
=:	=:
4b	ſei-
8a	-nem
=6	=6
4g}	Hut.
==	==
!!!AGN: Ballade, Todesahnung, Tod, Selbstmord
!!!ONB: ESAC (Essen Associative Code) Database: BALLADE
!!!AMT: compound duple
!!!AIN: vox
!!!EED: Helmut Schaffrath
!!!EEV: 1.0
!!!source: Deutsche Volkslieder mit ihren Melodien. Herausgegeben vom Deutschen Volksliedarchiv. Dritter Band Balladen. Berlin 1954.
!!!page: 99
!!!ENC: Anna Maria Matuszewska
!!!EEV: 2025/02/18
*-	*-
